dist/svgs/carbon-icons/svg/finance.svg

<svg xmlns="http://www.w3.org/2000/svg" viewBox="4 -4 24 24"><path d="M21 14h1V4h-1v10zm3 0h1V4h-1v10zM27 .7L16-2.9 5 .7V2h22V.7zm1-.7v3H4V0l12-4 12 4zM5 19h22v-3H5v3zm23-3v3c0 .6-.4 1-1 1H5c-.6 0-1-.4-1-1v-3c0-.6.4-1 1-1h22c.6 0 1 .4 1 1zm-18-2h1V4h-1v10zm-3 0h1V4H7v10z"/></svg>

<?xml version="1.0" encoding="utf-8"?>
<!-- Generator: Adobe Illustrator 19.1.0, SVG Export Plug-In . SVG Version: 6.00 Build 0)  -->
<!DOCTYPE svg PUBLIC "-//W3C//DTD SVG 1.1//EN" "http://www.w3.org/Graphics/SVG/1.1/DTD/svg11.dtd">
<svg version="1.1" id="Layer_1" xmlns="http://www.w3.org/2000/svg" xmlns:xlink="http://www.w3.org/1999/xlink" x="0px" y="0px"
	 width="24px" height="24px" viewBox="4 -4 24 24" style="enable-background:new 4 -4 24 24;" xml:space="preserve">
<title>financial</title>
<path d="M21,14h1V4h-1V14z M24,14h1V4h-1V14z M27,0.7L16-2.9L5,0.7V2l22,0C27,2,27,0.7,27,0.7z M28,0v3H4V0l12-4L28,0L28,0z M5,19
	h22v-3H5V19z M28,16v3c0,0.6-0.4,1-1,1H5c-0.6,0-1-0.4-1-1v-3c0-0.6,0.4-1,1-1h22C27.6,15,28,15.4,28,16z M10,14h1V4h-1V14z M7,14h1
	V4H7V14z"/>
</svg>
